!!!COM: Mozart, Wolfgang Amadeus
!!!OPR: Quartet in A Major
!!!OTL:
!!!OMV: 3
!!!SCT: K 464
!!!SCA: Chronologisch-thematisches Verzeichnis sämtlicher Tonwerke Wolfgang Amade Mozarts (L. von Köchel; 1862, 2/1905, 3/1937, 1947)
!!!YOR: Breitkopf & Härtel Edition
!!!EED: Frances Bennion
!!!ENC: Frances Bennion
!!!CDT: 1756/1/27/-1791/12/5/
!!!OCY: Österreich
!!!YEC: Copyright (c) 1994, 2000 Center for Computer Assisted Research in the Humanities
!!!YEM: Rights to all derivative editions reserved.
!!!YEM: Refer to licensing agreement for further details.
!!!YEN: United States of America
**kern	**kern	**kern	**kern
*k[f#c#]	*k[f#c#]	*k[f#c#]	*k[f#c#]
*D:	*D:	*D:	*D:
*clefG	*clefG	*clefF	*clefC
*M2/4	*M2/4	*M2/4	*M2/4
*tb96	*tb96	*tb96	*tb96
=0-	=0-	=0-	=0-
4r	4r	4r	4r
16.a	4r	4r	4r
32f#	.	.	.
16.g	.	.	.
32e	.	.	.
=1	=1	=1	=1
8d	8A	8F#	8D
4f#	8r	8r	8r
.	8d	8A	8D
[8a	8r	8r	8r
=2	=2	=2	=2
8a]	8c#	8A	8E
8g	4.r	4.r	4.r
16a	.	.	.
16g	.	.	.
16f#	.	.	.
16e	.	.	.
=3	=3	=3	=3
8d	8r	8r	8r
8c#	4A	8E	8GG
8d	.	8F#	8FF#
8a	8e	8A	8C#
=4	=4	=4	=4
8g	8e	8c#	4D
8f#	8d	8d	.
8b	8f#	8d	4r
8a	8e	8c#	.
=5	=5	=5	=5
8g#	8d	8B	4r
8a	8e	8c#	.
8ff#	8f#	8c#	8A
8ee	8e	8B	8G#
=6	=6	=6	=6
8dd#	8d#	8A	8F#
8ee	8e	8G#	8E
[4ee	4g	8A	4C#
.	.	8A#	.
=7	=7	=7	=7
16ee]	8f#	8B	8D
16ff#	.	.	.
16dd	8r	8r	8r
32cc#	.	.	.
32b	.	.	.
8.a	8.c#	8.e	8E
.	.	.	8E
32cc#	32e	16g#	.
32b	32d	.	.
=8	=8	=8	=8
8a	8c#	8a	8AA
8r	4.r	4.r	8A
16a	.	.	4r
16g#	.	.	.
16a	.	.	.
16e	.	.	.
=9	=9	=9	=9
4.e	8r	8r	8r
.	8c	8A	8AA
.	8B	8G	8BB
8d#	8A	8F#	8C
=10	=10	=10	=10
8a	8f#	8c	8DD#
8g#	8e	8B	8EE
16g	8r	8r	8r
8b	.	.	.
.	8e	8A	8C#
16a	.	.	.
=11	=11	=11	=11
16f#	8r	8r	8r
8a	.	.	.
.	8d	8A	8D
16g	.	.	.
16e	8r	8r	8r
8g	.	.	.
.	8B	8G	8GG
16f#	.	.	.
=12	=12	=12	=12
8d	4A	8F#	4AA
8c#	.	8E	.
8b	8f#	8d	4r
8a	8e	8c#	.
=13	=13	=13	=13
8g#	8d	8B	4r
8a	8e	8c#	.
8gg	8g	8d	8B
8ff#	8f#	8c#	8A
=14	=14	=14	=14
8ee#	8e#	8B	8G#
8ff#	8f#	8c#	8A
[4ee	8b	8g	4r
.	8a#	8f#	.
=15	=15	=15	=15
16ee]	8b	8g	4.r
16bb	.	.	.
16gg	4r	4r	.
32ff#	.	.	.
32ee	.	.	.
8dd	.	.	.
8ee	8cc#	8g	8A
=16	=16	=16	=16
8gg	8ee	8c#	8A#
8ff#	4dd	8d	8B
8bb	.	8.e	8G#
8ccc#	[8aa	.	8G
.	.	32d	.
.	.	32e	.
=17	=17	=17	=17
24ddd	24aa]	24f#	8F#
24aa	24ff#	24d	.
24ff#	24dd	24a	.
24ee	24b	24g	8G
24gg	24g	24e	.
24bb	24e	24b	.
8.dd	8.f#	8.a	8A
.	.	.	8AA
32ff#	32a	16c#	.
32ee	32g	.	.
=18	=18	=18	=18
8dd	8f#	8d	8D
8r	4.r	4.r	4.r
32g#	.	.	.
32a	.	.	.
32b	.	.	.
32a	.	.	.
32g	.	.	.
32f#	.	.	.
32g	.	.	.
32e	.	.	.
=19	=19	=19	=19
32d	8r	8r	4D
32f#	.	.	.
32a	.	.	.
32dd	.	.	.
[8ff#	8A	8F#	.
32ff#]	8d	8A	4F#
32ee	.	.	.
32dd	.	.	.
32cc#	.	.	.
32ee	8f#	8d	.
32dd	.	.	.
32cc#	.	.	.
32b	.	.	.
=20	=20	=20	=20
8a	8r	8r	4E
16g	8B	8G	.
16r	.	.	.
32g	8d	8B	4BB
32a	.	.	.
32b	.	.	.
32a	.	.	.
32g	8g	8d	.
32f#	.	.	.
32e	.	.	.
32d	.	.	.
=21	=21	=21	=21
32c#	8r	8r	4AA
32a	.	.	.
32cc#	.	.	.
32ee	.	.	.
[8gg	8e	8c#	.
32gg]	8a	8e	4C#
32ee	.	.	.
32cc#	.	.	.
32dd	.	.	.
32ee	8gg	8a	.
32cc#	.	.	.
32e	.	.	.
32a	.	.	.
=22	=22	=22	=22
8g	8r	8r	4D
16f#	8d	8A	.
8r	.	.	.
.	8f#	8d	4r
8b	.	.	.
.	8e	8c#	.
[16a	.	.	.
=23	=23	=23	=23
16a]	8d	8B	4r
8g#	.	.	.
.	8e	8c#	.
16a	.	.	.
32r	8f#	8c#	8A
32ff#	.	.	.
32gg#	.	.	.
32ff#	.	.	.
32r	8e	8B	8G#
32ee	.	.	.
32ff#	.	.	.
32ee	.	.	.
=24	=24	=24	=24
32r	8d#	8A	8F#
32dd#	.	.	.
32ee	.	.	.
32dd#	.	.	.
32r	4e	8B	8G#
32ee	.	.	.
32ff#	.	.	.
32ee	.	.	.
32aa	.	8c#	4C#
32ccc#	.	.	.
32bb	.	.	.
32aa	.	.	.
32gg#	[8a	8e	.
32ff#	.	.	.
32ee	.	.	.
32dd	.	.	.
=25	=25	=25	=25
32cc#	8a]	4f#	4D
32b	.	.	.
32cc#	.	.	.
32dd	.	.	.
32ee	8b	.	.
32ff#	.	.	.
32ee	.	.	.
32dd	.	.	.
32cc#	32a	8.e	8E
32dd	32b	.	.
32dd#	32b#	.	.
32ee	32cc#	.	.
32dd	32b	.	8E
32cc#	32a	.	.
32dd	32b	16d	.
32b	32g#	.	.
=26	=26	=26	=26
8a	8a	8c#	8AA
8r	4.r	4.r	8A
32a	.	.	4r
32b	.	.	.
32cc	.	.	.
32b	.	.	.
32a	.	.	.
32g#	.	.	.
32a	.	.	.
32f	.	.	.
=27	=27	=27	=27
32e	8r	8r	4C
32a	.	.	.
32cc	.	.	.
32ee	.	.	.
[8aa	8A	8E	.
32aa]	8d#	8F#	4BB
32ff#	.	.	.
32dd#	.	.	.
32ee	.	.	.
32ff#	8a	8d#	.
32dd#	.	.	.
32f#	.	.	.
32b	.	.	.
=28	=28	=28	=28
8a	8r	8r	4E
16g	8B	8E	.
16r	.	.	.
32ee	8g	8A	4C#
32gg	.	.	.
32ff#	.	.	.
32ee	.	.	.
32dd	8ee	8g	.
32cc#	.	.	.
32b	.	.	.
32a	.	.	.
=29	=29	=29	=29
32g	8r	8r	4D
32f#	.	.	.
32g	.	.	.
32a	.	.	.
32b	8f#	8A	.
32cc#	.	.	.
32ee	.	.	.
32dd	.	.	.
32cc#	8g	8e	4GG
32b	.	.	.
32a	.	.	.
32g	.	.	.
32f#	8b	8g	.
32e	.	.	.
32g	.	.	.
32B	.	.	.
=30	=30	=30	=30
8d	8r	8r	4AA
16c#	8e	8A	.
8r	.	.	.
.	8f#	8d	4r
8b	.	.	.
.	8e	8c#	.
[16a	.	.	.
=31	=31	=31	=31
16a]	8d	8B	4r
8g#	.	.	.
.	8e	8c#	.
16a	.	.	.
32r	8g	8d	8B
32gg	.	.	.
32aa	.	.	.
32gg	.	.	.
32r	8f#	8c#	8A
32ff#	.	.	.
32gg	.	.	.
32ff#	.	.	.
=32	=32	=32	=32
32r	8e#	8B	8G#
32ee#	.	.	.
32ff#	.	.	.
32ee#	.	.	.
32r	8f#	8c#	8A
32ff#	.	.	.
32gg	.	.	.
32ff#	.	.	.
32ee	8b	8g	8G
32gg	.	.	.
32ff#	.	.	.
32ee	.	.	.
32dd#	8cc	8f#	8A
32ff#	.	.	.
32ee	.	.	.
32dd#	.	.	.
=33	=33	=33	=33
32ee	8b	8g	8G
32bb	.	.	.
32aa#	.	.	.
32aa	.	.	.
32gg#	8r	8r	8r
32gg	.	.	.
32ff#	.	.	.
32ee	.	.	.
32dd	8a	8f#	8A
32aa	.	.	.
32bb	.	.	.
32aa	.	.	.
32ee	8cc#	8a	8A
32aa	.	.	.
32bb	.	.	.
32aa	.	.	.
=34	=34	=34	=34
8gg	8ee	8cc#	8D
16ff#	16dd	16dd	8r
16r	16r	16r	.
32ee	4cc# 4e	[4a	4G
32ff#	.	.	.
32gg	.	.	.
32aa	.	.	.
32bb	.	.	.
32ccc#	.	.	.
32ddd	.	.	.
32eee	.	.	.
=35	=35	=35	=35
32fff#	16dd 16d	16a]	16F#
32ccc#	.	.	.
32ddd	16r	16r	16r
32aa#	.	.	.
32bb	16b	16d	16G
32ff#	.	.	.
32gg	16r	16r	16r
32ee	.	.	.
32dd	16.f#	8.a	8A
32ff#	.	.	.
32aa	.	.	.
32gg#	32e#	.	.
32gg	32e	.	8AA
32ff#	32d	.	.
32gg	32e	16g	.
32ee	32c#	.	.
=36	=36	=36	=36
8dd	8d	8f#	8D
8r	8r	4.r	4.r
8a	32d	.	.
.	32f#	.	.
.	32a	.	.
.	32f#	.	.
8a	32d	.	.
.	32A	.	.
.	32d	.	.
.	32A	.	.
=37	=37	=37	=37
8a	32d	2r	8D
.	32f#	.	.
.	32a	.	.
.	32f#	.	.
4dd	32d	.	8r
.	32A	.	.
.	32d	.	.
.	32A	.	.
.	32d	.	8D
.	32f#	.	.
.	32a	.	.
.	32f#	.	.
8ff#	32d	.	8r
.	32A	.	.
.	32d	.	.
.	32A	.	.
=38	=38	=38	=38
24ff#	32e	8r	[4D
.	32g	.	.
24aa	.	.	.
.	32a	.	.
24gg	.	.	.
.	32g	.	.
8gg	32e	8G 8E	.
.	32A	.	.
.	32e	.	.
.	32A	.	.
8a	32e	8G 8E	16D]
.	32g	.	.
.	32a	.	32C#
.	32g	.	32D
8a	32e	8G 8E	16E
.	32A	.	.
.	32e	.	16D
.	32A	.	.
=39	=39	=39	=39
8a	32e	4G 4E	8C#
.	32g	.	.
.	32a	.	.
.	32g	.	.
4cc#	32e	.	8r
.	32A	.	.
.	32e	.	.
.	32A	.	.
.	32c#	4r	8AA
.	32e	.	.
.	32a	.	.
.	32e	.	.
8ee	32c#	.	8r
.	32A	.	.
.	32c#	.	.
.	32A	.	.
=40	=40	=40	=40
24ee	32d	8r	4D
.	32f#	.	.
24gg	.	.	.
.	32a	.	.
24ff#	.	.	.
.	32f#	.	.
8ff#	32d	8D	.
.	32A	.	.
.	32d	.	.
.	32A	.	.
16b	32d	4f#	8r
.	32f#	.	.
16cc#	32b	.	.
.	32f#	.	.
16dd	32d	.	[8d
.	32B	.	.
16b	32d	.	.
.	32B	.	.
=41	=41	=41	=41
8.ee	32e	16g#	8d]
.	32g#	.	.
.	32b	16e	.
.	32g#	.	.
.	32a	8e	8c#
.	32e	.	.
64dd	32a	.	.
64cc#	.	.	.
64b	32e	.	.
64a	.	.	.
16ff#	32a	8C#	8AA
.	32cc#	.	.
16gg#	32ff#	.	.
.	32cc#	.	.
16aa	32a	8c#	[8A
.	32f#	.	.
16ff#	32a	.	.
.	32f#	.	.
=42	=42	=42	=42
8.bb	32b	16d#	8A]
.	32dd#	.	.
.	32ff#	16B	.
.	32dd#	.	.
.	32ee	16g#	8G#
.	32b	.	.
64aa	32ee	16e	.
64gg#	.	.	.
64ff#	32b	.	.
64ee	.	.	.
16.ccc#	32a	16.c#	8AA
.	32cc#	.	.
.	32ee	.	.
32aa	32cc#	32e	.
16.gg#	32ee	16.d	8BB
.	32dd	.	.
.	32b	.	.
32bb	32g#	32B	.
=43	=43	=43	=43
16.aa	32e	16.E	8C#
.	32a	.	.
.	32cc#	.	.
32cc#	32a	32e	.
16.b	32f#	16.d	8D
.	32a	.	.
.	32f#	.	.
32ff#	32d	32B	.
8a	32c#	8e	8E
.	32e	.	.
.	32c#	.	.
.	32A	.	.
8b	32d	8g#	8EE
.	32e	.	.
.	32d	.	.
.	32B	.	.
=44a	=44a	=44a	=44a
8a	32c#	8a	8AA
.	32e	.	.
.	32a	.	.
.	32g#	.	.
8r	32g	8r	8r
.	32f#	.	.
.	32g	.	.
.	32e	.	.
4r	4r	4r	4r
=44b	=44b	=44b	=44b
8a	32c#	8a	8AA
.	32e	.	.
.	32f#	.	.
.	32g#	.	.
8r	32a	8r	8r
.	32g#	.	.
.	32b	.	.
.	32a	.	.
8a	32cc	4r	4r
.	32dd	.	.
.	32cc	.	.
.	32b	.	.
8a	32a	.	.
.	32g	.	.
.	32f#	.	.
.	32e	.	.
=45	=45	=45	=45
8a	32d#	8F#	8BB
.	32f#	.	.
.	32a	.	.
.	32f#	.	.
4ccc	32d#	4A	8r
.	32B	.	.
.	32d#	.	.
.	32B	.	.
.	32f#	.	8D#
.	32a	.	.
.	32cc	.	.
.	32a	.	.
8bb	32f#	8B	8r
.	32B	.	.
.	32f#	.	.
.	32B	.	.
=46	=46	=46	=46
24aa	32e	16c	8.E
.	32g	.	.
24ff#	.	.	.
.	32b	16B	.
24gg	.	.	.
.	32g	.	.
8gg	32e	8B	.
.	32B	.	.
.	32e	.	16D
.	32B	.	.
16gg	32e	8r	8C#
.	32g	.	.
8eee	32a	.	.
.	32g	.	.
.	32e	8c#	8r
.	32A	.	.
16gg	32e	.	.
.	32A	.	.
=47	=47	=47	=47
16ff#	32d	8r	8D
.	32f#	.	.
8ddd	32a	.	.
.	32g	.	.
.	32f#	8d	8r
.	32e	.	.
16ff#	32d	.	.
.	32c#	.	.
16ee	32B	8r	8GG
.	32g	.	.
8bb	32b	.	.
.	32a	.	.
.	32g	8G	8r
.	32f#	.	.
16b	32e	.	.
.	32d	.	.
=48	=48	=48	=48
8dd	32f#	8r	4AA
.	32a	.	.
.	32f#	.	.
.	32d	.	.
8cc#	32e	8A	.
.	32a	.	.
.	32e	.	.
.	32c#	.	.
16b	32d	4f#	8r
.	32f#	.	.
16cc#	32b	.	.
.	32f#	.	.
16dd	32d	.	[8d
.	32B	.	.
16b	32d	.	.
.	32B	.	.
=49	=49	=49	=49
8.ee	32e	16g#	8d]
.	32g#	.	.
.	32b	16e	.
.	32g#	.	.
.	32a	8e	8c#
.	32e	.	.
64dd	32a	.	.
64cc#	.	.	.
64b	32e	.	.
64a	.	.	.
16ee	32g	8B	8GG
.	32b	.	.
16ff#	32ee	.	.
.	32b	.	.
16gg	32g	8b	[8G
.	32e	.	.
16ee	32g	.	.
.	32e	.	.
=50	=50	=50	=50
8.aa	32a	16cc#	8G]
.	32cc#	.	.
.	32ee	16a	.
.	32cc#	.	.
.	32dd	8a	8F#
.	32a	.	.
64gg	32dd	.	.
64ff#	.	.	.
64ee	32a	.	.
64dd	.	.	.
16.bb	32e	16.g	8G
.	32g	.	.
.	32b	.	.
32ee	32g	32B	.
16.dd#	32f#	16.c	8A
.	32a	.	.
.	32f#	.	.
32ccc	32d#	32f#	.
=51	=51	=51	=51
8.bb	32e	8g	8G
.	32B	.	.
.	32e	.	.
.	32g	.	.
.	32b	8G	4r
.	32g	.	.
64aa	32b	.	.
64gg	.	.	.
64ff#	32g	.	.
64ee	.	.	.
8dd	32f#	8A	.
.	32a	.	.
.	32f#	.	.
.	32d	.	.
8cc#	32g	8r	8AA
.	32a	.	.
.	32g	.	.
.	32e	.	.
=52	=52	=52	=52
8gg	32c#	4r	8AA#
.	32d	.	.
.	32e	.	.
.	32c#	.	.
8ff#	32d	.	8BB
.	32e	.	.
.	32f#	.	.
.	32d	.	.
16.bb	32e	16.dd	8GG#
.	32g#	.	.
.	32b	.	.
32ee	32dd	32b	.
16.ccc#	32e	16.a	8GG
.	32a	.	.
.	32cc#	.	.
32aa	32ee	32cc#	.
=53	=53	=53	=53
16.ddd	32a	16.dd	8FF#
.	32dd	.	.
.	32ff#	.	.
32ff#	32dd	32a	.
16.ee	32b	16.g	8GG
.	32dd	.	.
.	32b	.	.
32bb	32g	32e	.
8dd	32f#	8a	8AA
.	32a	.	.
.	32f#	.	.
.	32d	.	.
8ee	32g	8cc#	8AA
.	32a	.	.
.	32g	.	.
.	32e	.	.
=54a	=54a	=54a	=54a
8dd	32f#	8dd	8DD
.	32e	.	.
.	32d	.	.
.	32e	.	.
8r	32f#	8r	8r
.	32g	.	.
.	32a	.	.
.	32b	.	.
4r	4r	4r	4r
=54b	=54b	=54b	=54b
8dd	8f#	8dd	8DD
8r	8r	8r	8r
16.f#	16.d	4r	4r
32d	32A	.	.
16.g	16.e	.	.
32e	32c#	.	.
=55	=55	=55	=55
8a	8f#	8r	4r
4.r	4.r	8.dd	.
.	.	.	4D
.	.	32cc#	.
.	.	32b	.
.	.	32b	.
.	.	32a	.
.	.	32g	.
.	.	32f#	.
=56	=56	=56	=56
4r	4r	8a	8E
.	.	16g	4.r
.	.	16r	.
16.e	16.c#	4r	.
32c#	32A	.	.
16.f#	16.d	.	.
32d	32B	.	.
=57	=57	=57	=57
8g	8e	8r	4r
4.r	4.r	8.ee	.
.	.	.	4C#
.	.	32dd	.
.	.	32cc#	.
.	.	32b	.
.	.	32a	.
.	.	32b	.
.	.	32g	.
=58	=58	=58	=58
2r	2r	8e#	8D
.	.	16f#	8r
.	.	16r	.
.	.	4r	8BB
.	.	.	8AA
=59	=59	=59	=59
2r	2r	4r	8GG#
.	.	.	8AA
.	.	8f#	[4A
.	.	8e	.
=60	=60	=60	=60
4r	4r	8d#	8A]
.	.	8e	8G#
8gg	8g	8A	4C#
8ff#	8f#	8A#	.
=61	=61	=61	=61
8ee#	8e#	8B	8D
8ff#	8f#	8c	8D#
8.a	8.e	8.c#	8E
.	.	.	8EE
32cc#	16g#	32e	.
32b	.	32d	.
=62	=62	=62	=62
8a	8a	8c#	8AA
8r	8r	4.r	4.r
16.e	16.c	.	.
32c	32A	.	.
16.a	16.e	.	.
32e	32c	.	.
=63	=63	=63	=63
8cc	8a	8r	8r
4.r	4.r	8.e	8C
.	.	.	8BB
.	.	16d#	.
.	.	16cc	8D#
.	.	16b	.
=64	=64	=64	=64
4r	4r	8a	8E
.	.	16g	8r
.	.	16r	.
16.ee	16.cc#	4r	8A
32cc#	32a	.	.
32gg	32ee	.	8G
32ee	32cc#	.	.
32gg	32ee	.	.
32ee	32cc#	.	.
=65	=65	=65	=65
8aa	8ff#	8r	8F#
4.r	4.r	8.a	8FF#
.	.	.	8.GG
.	.	16b	.
.	.	32a	.
.	.	32g	.
.	.	32f#	16GG#
.	.	32e	.
=66	=66	=66	=66
4r	4.r	8d	8AA
.	.	16c#	4.r
.	.	8.r	.
8bb	.	.	.
8aa	8ff#	[8dd	.
=67	=67	=67	=67
8gg#	8ff	8dd]	2r
8aa	8ee	8cc#	.
8r	8gg	8r	.
[8ddd	8ff#	[8b	.
=68	=68	=68	=68
8ddd]	8ee#	8b]	4r
8ccc#	8ff#	8a	.
8r	8r	8g	8e
16.bb	[8gg	8f#	8d
32aa	.	.	.
=69	=69	=69	=69
8.aa	8gg]	8e	8c#
.	8ff#	8f#	8d
16bb	.	.	.
8dd	8f#	8a	8A
8cc#	8e	8g	[8A#
=70	=70	=70	=70
8gg	8cc#	8e	8A#]
8ff#	8dd	8d	8B
8ccc	8cc	8d#	8A
8bb	8b	8e	8G
=71	=71	=71	=71
8aa#	8a#	8e	8F#
8bb	8b	8f	8G#
8.dd	8.f#	8.a	8A
.	.	.	8AA
32ff#	32a	16c#	.
32ee	32g	.	.
=72	=72	=72	=72
8dd	8f#	8d	8D
8r	8r	8r	4.r
8d	8A	8F	.
8d	8A	8F	.
=73	=73	=73	=73
[4d	4.A	[4.F	24D
.	.	.	24C#
.	.	.	24D
.	.	.	24F
.	.	.	24A
.	.	.	24F
24d]	.	.	8D
24f	.	.	.
24d	.	.	.
24a	8d	24F]	8r
24g	.	24G	.
24f	.	24A	.
=74	=74	=74	=74
[4e	4.d	4.B-	24GG
.	.	.	24FF#
.	.	.	24GG
.	.	.	24BB-
.	.	.	24D
.	.	.	24BB-
24e]	.	.	8GG
24g	.	.	.
24e	.	.	.
24b-	8G	8E	8r
24g	.	.	.
24e	.	.	.
=75	=75	=75	=75
8d	4.e	4.G	24AA
.	.	.	24GG#
.	.	.	24AA
6c#	.	.	24C#
.	.	.	24E
.	.	.	24C#
.	.	.	8AA
24e	.	.	.
24g#	.	.	.
24a	8c#	8E	8r
24e	.	.	.
24a	.	.	.
=76	=76	=76	=76
8g	8e	8c#	24D
.	.	.	24C#
.	.	.	24D
8f	8d	8d	24F
.	.	.	24A
.	.	.	24F
24r	8r	8r	8D
24b-	.	.	.
24a	.	.	.
24b-	[8f	[8d	8r
24dd	.	.	.
24b-	.	.	.
=77	=77	=77	=77
24g#	8f]	8d]	4r
24b	.	.	.
24g#	.	.	.
24a	8e	8c	.
24cc	.	.	.
24a	.	.	.
24r	24r	8C	8AA
24ff	24f	.	.
24ee	24e	.	.
24ff	24f	[8c	[8A
24aa	24a	.	.
24ff	24f	.	.
=78	=78	=78	=78
24dd#	24d#	8c]	8A]
24ff#	24f#	.	.
24dd#	24d#	.	.
24ee	24e	8B	8G#
24gg#	24g#	.	.
24ee	24e	.	.
8.ccc	8.ee	24r	24r
.	.	24c	24A
.	.	24B	24G#
.	.	24c	24A
.	.	24e	24c
32r	32r	.	.
.	.	24c	24A
32cc	32e	.	.
=79	=79	=79	=79
8.aa	8.cc	24r	24r
.	.	24A	24F
.	.	24G#	24E
.	.	24A	24F
.	.	24c	24A
32r	32r	.	.
.	.	24A	24F
32a	32c	.	.
8ff	8a	8B	24D
.	.	.	24C
.	.	.	24D
8g#	8B	8e	24E
.	.	.	24D
.	.	.	24E
=80	=80	=80	=80
8a	8A	8e	8AA
8r	4.r	4.r	4.r
8a	.	.	.
8a	.	.	.
=81	=81	=81	=81
4.a	24r	4r	8AA
.	24A	.	.
.	24c#	.	.
.	24e	.	8r
.	24c#	.	.
.	24e	.	.
.	8a	24r	8AA
.	.	24e	.
.	.	24c#	.
8aa	8r	24e	8r
.	.	24c#	.
.	.	24A	.
=82	=82	=82	=82
4.ff	24r	8d	8AA
.	24A	.	.
.	24d	.	.
.	24f	6r	8r
.	24d	.	.
.	24f	.	.
.	8a	.	8AA
.	.	24f	.
.	.	24d	.
16ee	8r	24f	8r
.	.	24d	.
16dd	.	.	.
.	.	24A	.
=83	=83	=83	=83
4cc#	24r	4g	8AA
.	24e	.	.
.	24g	.	.
.	24a	.	8r
.	24g	.	.
.	24e	.	.
8.dd	24r	8.f	8AA
.	24d	.	.
.	24f	.	.
.	24a	.	8r
.	24f	.	.
32cc#	.	32e	.
.	24d	.	.
32dd	.	32d	.
=84	=84	=84	=84
8ee	8A	8c#	24r
.	.	.	24AA
.	.	.	24C#
8r	4.r	4.r	24E
.	.	.	24C#
.	.	.	24E
8a	.	.	24A
.	.	.	24c#
.	.	.	24A
8a	.	.	24E
.	.	.	24C#
.	.	.	24E
=85	=85	=85	=85
8a	24r	4r	8AA
.	24A	.	.
.	24c#	.	.
4bb-	24e	.	8r
.	24c#	.	.
.	24e	.	.
.	8g	24r	8AA
.	.	24e	.
.	.	24c#	.
16aa	8r	24e	8r
.	.	24c#	.
16gg	.	.	.
.	.	24A	.
=86	=86	=86	=86
4.ff	24r	8d	8AA
.	24A	.	.
.	24d	.	.
.	24f	6r	8r
.	24d	.	.
.	24f	.	.
.	8a	.	8AA
.	.	24f	.
.	.	24d	.
16ee	8r	24f	8r
.	.	24d	.
16dd	.	.	.
.	.	24A	.
=87	=87	=87	=87
4fff	24r	8d	2BB-
.	24c#	.	.
.	24d	.	.
.	24f	6r	.
.	24c#	.	.
.	24d	.	.
4gg#	8f	.	.
.	.	24c#	.
.	.	24d	.
.	8r	24f	.
.	.	24e	.
.	.	24d	.
=88	=88	=88	=88
8aa	4r	8c#	8AA
6r	.	8r	4.r
.	8B-	8G	.
24ee-	.	.	.
24dd	.	.	.
24ee-	[8b-	[8g	.
24gg	.	.	.
24ee-	.	.	.
=89	=89	=89	=89
24cc#	8b-]	8g]	4r
24ee	.	.	.
24cc#	.	.	.
24dd	8a	8f	.
24ff	.	.	.
24dd	.	.	.
24r	24r	8F	8D
24bb-	24b-	.	.
24aa	24a	.	.
24bb-	24b-	[8f	[8d
24ddd	24dd	.	.
24bb-	24b-	.	.
=90	=90	=90	=90
24gg#	24g#	8f]	8d]
24bb	24b	.	.
24gg#	24g#	.	.
24aa	24a	8e	8c#
24ccc#	24cc#	.	.
24aa	24a	.	.
8.fff	8.aa	24r	24r
.	.	24f	24d
.	.	24e	24c#
.	.	24f	24d
.	.	24a	24f
32r	32r	.	.
.	.	24f	24d
32ff	32a	.	.
=91	=91	=91	=91
8.ddd	8.ff	24r	24r
.	.	24d	24B-
.	.	24c#	24A
.	.	24d	24B-
.	.	24f	24d
32r	32r	.	.
.	.	24d	24B-
32dd	32f	.	.
8bb-	8dd	8e	24G
.	.	.	24F
.	.	.	24G
8gg	8cc#	8e	24A
.	.	.	24G
.	.	.	24A
=92	=92	=92	=92
8ff	8dd	8d	8B-
8r	8r	6r	6r
8.ff	8.g#	.	.
.	.	24D	24BB-
.	.	24C#	24AA
.	.	24D	24BB-
.	.	24F	24D
32r	32r	.	.
.	.	24D	24BB-
32f	32G#	.	.
=93	=93	=93	=93
8.dd	8.f	24r	24r
.	.	24B	24GG#
.	.	24A	24FF#
.	.	24B	24GG#
.	.	24d	24BB
32r	32r	.	.
.	.	24F	24GG#
32d	32B	.	.
8a	8d	8E	24AA
.	.	.	24GG#
.	.	.	24AA
8a	8c#	8E	24AA
.	.	.	24GG#
.	.	.	24AA
=94	=94	=94	=94
8d	8d	8D	8DD
8r	4.r	4.r	4.r
8a	.	.	.
8g	.	.	.
=95	=95	=95	=95
8f#	4r	2r	2r
4b	.	.	.
.	8d	.	.
[8a	8c#	.	.
=96	=96	=96	=96
8a]	8B	2r	8r
8..g	4e	.	8EE
.	.	.	8FF#
32a	.	.	.
16.f#	[8d	.	8GG
32g	.	.	.
=97	=97	=97	=97
8e	8d]	8r	8AA
4a	8c#	8A	4.r
.	8d	8B	.
[8g	8e	8c#	.
=98	=98	=98	=98
8g]	8A	8d	8r
8..f#	8..d	8F#	8DD
.	.	8G	8EE
32g	32e	.	.
16.e	16.c#	8A	8FF#
32f#	32d	.	.
=99	=99	=99	=99
8d	8B	8B	8GG
8..g	8..e	8G	8EE
.	.	8A	8FF#
32a	32f#	.	.
16.f#	16.d	8B	8GG
32g	32e	.	.
=100	=100	=100	=100
8e	8c#	8c#	8AA
8..a	8..f#	8A	8FF#
.	.	8B	8GG
32b	32g	.	.
16.g	16.e	8c#	8AA
32a	32f#	.	.
=101	=101	=101	=101
8f#	[4d	8d	2BB
8b	.	8f#	.
8a	16d]	4e	.
.	32c#	.	.
.	32d	.	.
16g#	16e	.	.
32f#	16d	.	.
32g#	.	.	.
=102	=102	=102	=102
8a	8c#	8e	8AA
8r	4.r	8r	4.r
8a	.	8A	.
8g	.	8c#	.
=103	=103	=103	=103
8f#	4r	8d	4r
4b	.	4.r	.
.	8d	.	8BB
[8a	8c	.	8D#
=104	=104	=104	=104
8a]	8B	4r	8E
16.g	4c#	.	4.r
32f#	.	.	.
16.g	.	8E	.
32a	.	.	.
16.f#	[8d	8G#	.
32g	.	.	.
=105	=105	=105	=105
8e	8d]	8A	4r
4a	16.c	4.r	.
.	32B	.	.
.	16.c	.	8AA
.	32d	.	.
[8g	16.B	.	8C
.	32c	.	.
=106	=106	=106	=106
8g]	8A	4r	8D
16.f#	4d	.	4.r
32e	.	.	.
16.f#	.	8d	.
32g	.	.	.
16.e	8a	8c	.
32f#	.	.	.
=107	=107	=107	=107
8g	8b	8B	4r
4.r	16.cc#	4e	.
.	32b	.	.
.	8cc#	.	8G
.	8dd	[8d	8F#
=108	=108	=108	=108
4r	16.ee	16.d]	8E
.	32dd	32B	.
.	16.cc#	16.c#	4A
.	32b	32d	.
8cc#	8a	4e	.
8b	8c#	.	8G
=109	=109	=109	=109
8a	16.d	16.f#	8F#
.	32a	32A	.
8..ee	16.g#	16.B	16.E
.	32f#	32c#	32D
.	8.g#	8.B	8E
32ff#	.	.	.
16.dd	.	.	8E
.	32f#	32A	.
32ee	32g#	32B	.
=110	=110	=110	=110
8cc#	8a	8A	8AA
4r	8r	8r	8A
.	8a	8f#	4r
[8cc	8g	8e	.
=111	=111	=111	=111
8cc]	8f#	8d#	8r
8b	4b	4g	8BB
4r	.	.	8C#
.	[8a	[8f#	8D#
=112	=112	=112	=112
8r	8a]	8f#]	4E
8gg	8..g	8..e	.
8aa	.	.	4r
.	32a	32f	.
[8bb-	16.f	16.d	.
.	32g	32e	.
=113	=113	=113	=113
8bb-]	8e	8c#	8r
8aa	4a	4f#	8AA
4r	.	.	8BB
.	[8g	[8e	8C#
=114	=114	=114	=114
4r	8g]	8e]	4D
.	16.f#	16.d	.
.	32e	32c#	.
8dd	8f#	8d	4r
8cc#	8r	8r	.
=115	=115	=115	=115
8b	8d	2r	2GG#
8..ee	8c#	.	.
.	8B	.	.
32ff#	.	.	.
16.dd	[8e	.	.
32ee	.	.	.
=116	=116	=116	=116
8cc#	16.e]	8G	4.AA
.	32f#	.	.
8..aa	16.d	8F#	.
.	32e	.	.
.	8c#	8E	.
32bb	.	.	.
16.gg	8e	[8A	8C#
32aa	.	.	.
=117	=117	=117	=117
16.ff#	8d	8A]	8D
32gg	.	.	.
16.ee	8b	8g	8G
32ff#	.	.	.
16.dd	8a	8f#	8A
32ee	.	.	.
16.cc#	8g	16.e	8AA
32ee	.	32c#	.
=118	=118	=118	=118
8dd	8f#	8d	4D
4.r	4.r	8..a	.
.	.	.	8r
.	.	32b	.
.	.	16.g	[8A
.	.	32a	.
=119	=119	=119	=119
8r	4.r	16.f#	16.A]
.	.	32g	32B
8..bb	.	16.e	16.G
.	.	32f#	32A
.	.	8d#	8F#
32ccc	.	.	.
16.aa	[8b	8f#	8D#
32bb	.	.	.
=120	=120	=120	=120
16.gg	16.b]	8e	8E
32aa	32cc	.	.
16.ff#	16.a	4.r	8..e
32gg	32b	.	.
8ee	8g	.	.
.	.	.	32f#
8r	[8ee	.	16.d
.	.	.	32e
=121	=121	=121	=121
4.r	16.ee]	8r	16.c#
.	32ff#	.	32d
.	16.dd	8..a	16.B
.	32ee	.	32c#
.	8cc#	.	8A
.	.	32b	.
[8aa	8ee	16.g	8C#
.	.	32a	.
=122	=122	=122	=122
16.aa]	8a	16.f#	8D
32bb	.	32g	.
16.gg	16cc#	16.e	8r
.	32b	.	.
32aa	32cc#	32f#	.
8ff#	8dd	8d	8D
8r	8r	8r	8C#
=123	=123	=123	=123
2r	8dd	4r	8BB
.	8cc#	.	8..E
.	8b	8g	.
.	.	.	32F#
.	[8ee	8f#	16.D
.	.	.	32E
=124	=124	=124	=124
8gg	16.ee]	8e	8C#
.	32ff#	.	.
8ff#	16.dd	8..a	8D
.	32ee	.	.
8ee	16.cc#	.	8AA
.	32dd	32b	.
[8aa	8ee	16.g	8C#
.	.	32a	.
=125	=125	=125	=125
16.aa]	8dd	8f#	8D
32bb	.	.	.
16.gg	8ee	8b	8G
32aa	.	.	.
16.ff#	8dd	8a	8A
32gg	.	.	.
16.ee	8cc#	8g	8AA
32ff#	.	.	.
=126	=126	=126	=126
8dd	8dd	8f#	8D
4.r	4.r	4.r	8r
.	.	.	16D
.	.	.	16AA
.	.	.	16D
.	.	.	16AA
=127	=127	=127	=127
4.a	4.f#	4.d	16D
.	.	.	32AA
.	.	.	32AA
.	.	.	16AA
.	.	.	16AA
.	.	.	16D
.	.	.	16AA
8dd	8a	8A	16F#
.	.	.	16AA
=128	=128	=128	=128
4.cc#	[2a	4.g	16E
.	.	.	32AA
.	.	.	32AA
.	.	.	16AA
.	.	.	16AA
.	.	.	16E
.	.	.	16AA
8dd	.	8f#	16D
.	.	.	16AA
=129	=129	=129	=129
8ee	2a_	8e	16C#
.	.	.	16AA
8ff#	.	8d	16D
.	.	.	16AA
8gg	.	8c#	16E
.	.	.	16AA
8aa	.	8e	16C#
.	.	.	16AA
=130	=130	=130	=130
8gg	8a]	8e	16D
.	.	.	32AA
.	.	.	32AA
16ff#	8r	16d	16AA
16r	.	16r	16AA
4r	8b	8c#	16G
.	.	.	16AA
.	8a	[8d	16F#
.	.	.	16AA
=131	=131	=131	=131
4r	8g#	8d]	16E#
.	.	.	16AA
.	8a	8A	16F#
.	.	.	16AA
8ff#	8g#	4r	16D
.	.	.	16AA
8ee	[8a	.	16C#
.	.	.	16AA
=132	=132	=132	=132
8dd#	8a]	8r	16BB#
.	.	.	16AA
4ee	8g	4a	16C#
.	.	.	16AA
.	8f#	.	16D
.	.	.	16AA
8dd	8f	8b	16G#
.	.	.	16AA
=133	=133	=133	=133
8cc#	8e	8a	16A
.	.	.	16AA
8cc	4a	8f#	16D#
.	.	.	16AA
16b	.	8B	16E
32b	.	.	16AA
32a	.	.	.
16b	8g#	8e	16D
16ee	.	.	16AA
=134	=134	=134	=134
8ee	8a	8e	16C#
.	.	.	32AA
.	.	.	32AA
16a	16e	16c#	16AA
16r	16r	16r	16AA
8a	8e	8c#	16A
.	.	.	16AA
8a	8e	8c#	16G
.	.	.	16AA
=135	=135	=135	=135
8a	8f#	8d#	16F#
.	.	.	16AA
8cc	8g	8e	16E
.	.	.	16AA
8b	8a	8f#	16D#
.	.	.	16AA
8a	8d#	8B	16F#
.	.	.	16AA
=136	=136	=136	=136
8g	8e	8c#	16E
.	.	.	16AA
8b-	8f	8d	16D
.	.	.	16AA
8a	8g	8e	16C#
.	.	.	16AA
8g	8c#	8A	16E
.	.	.	16AA
=137	=137	=137	=137
8f#	4.d	4A	16D
.	.	.	16AA
8a	.	.	16F#
.	.	.	16AA
8b	.	8r	16G
.	.	.	16AA
8ee	8b	8e	16G#
.	.	.	16AA
=138	=138	=138	=138
8dd	8b	8g#	16A
.	.	.	32AA
.	.	.	32AA
16cc#	16a	16a	16AA
16r	16r	16r	16AA
4r	8b	8c#	16G
.	.	.	16AA
.	8a	[8d	16F#
.	.	.	16AA
=139	=139	=139	=139
4r	8g#	8d]	16E#
.	.	.	16AA
.	8a	8A	16F#
.	.	.	16AA
8gg	8cc#	4r	16E
.	.	.	16AA
8ff#	8dd	.	16D
.	.	.	16AA
=140	=140	=140	=140
8ee#	4a	8r	16C#
.	.	.	16AA
4ff#	.	8cc	16D#
.	.	.	16AA
.	8g#	8b	16E
.	.	.	32AA
.	.	.	32AA
[8ee	8g	8b-	16C#
.	.	.	16AA
=141	=141	=141	=141
8ee]	8f#	8a	16D
.	.	.	32AA
.	.	.	32AA
4dd	8f	8b	16G#
.	.	.	16AA
.	4e	[4a	16A
.	.	.	16AA
8cc#	.	.	16G
.	.	.	16AA
=142	=142	=142	=142
4aa	8r	8a]	16F#
.	.	.	16AA
.	8dd#	8A	16F
.	.	.	16AA
8gg#	8ee	8B	16E
.	.	.	32AA
.	.	.	32AA
8gg	8b-	8e	16C#
.	.	.	16AA
=143	=143	=143	=143
8ff#	8a	8f#	16D
.	.	.	32AA
.	.	.	32AA
8ff	4dd	8b	16G#
.	.	.	16AA
8.ee	.	8e	16A
.	.	.	32AA
.	.	.	32AA
.	8cc#	16a	16AA
32dd	.	16g	16AA
32ee	.	.	.
=144a	=144a	=144a	=144a
8dd	8dd	8f#	16D
.	.	.	32AA
.	.	.	32AA
8r	8r	8r	16AA
.	.	.	16AA
4r	4r	4r	4r
=144b	=144b	=144b	=144b
8dd	8dd	16f#	8D
.	.	32D	.
.	.	32D	.
8r	8r	16D	8r
.	.	16D	.
4r	4r	16F#	4r
.	.	16D	.
.	.	16F#	.
.	.	16D	.
=145	=145	=145	=145
2cc	2a	16F#	[2d
.	.	32D	.
.	.	32D	.
.	.	16D	.
.	.	16D	.
.	.	16F#	.
.	.	16D	.
.	.	16F#	.
.	.	16D	.
=146	=146	=146	=146
4b	4g	16G	4d]
.	.	32D	.
.	.	32D	.
.	.	16D	.
.	.	16D	.
4r	4r	16G	4r
.	.	16D	.
.	.	16G	.
.	.	16D	.
=147	=147	=147	=147
4gg	4c#	16E	[2A
.	.	32D	.
.	.	32D	.
.	.	16D	.
.	.	16D	.
8ee	8e	16G	.
.	.	16D	.
8cc#	8g	16E	.
.	.	16D	.
=148	=148	=148	=148
8.aa	8.f#	16F#	4A]
.	.	32D	.
.	.	32D	.
.	.	16D	.
16ff#	16d	16D	.
8dd	8a	16F#	8d
.	.	16D	.
8r	8r	16F#	8r
.	.	16D	.
=149	=149	=149	=149
2ccc	2f#	16A	[2d
.	.	32D	.
.	.	32D	.
.	.	16D	.
.	.	16D	.
.	.	16A	.
.	.	16D	.
.	.	16A	.
.	.	16D	.
=150	=150	=150	=150
8bb	8g	16G	8d]
.	.	32D	.
.	.	32D	.
8r	8r	16D	8r
.	.	16D	.
8aa	8a	16F#	8d
.	.	32D	.
.	.	32D	.
8r	8r	16D	8r
.	.	16D	.
=151	=151	=151	=151
8gg	8dd	16B	8d
.	.	16D	.
8ff#	8dd	16A	8d
.	.	16D	.
8ee	8a	16G	8c#
.	.	16D	.
8dd	8a	16F#	8d
.	.	16D	.
=152	=152	=152	=152
4cc#	16a	4A	4e
.	32A	.	.
.	32A	.	.
.	16A	.	.
.	16A	.	.
8r	16c#	8r	8r
.	16A	.	.
8ee	16c#	8a	8g
.	16A	.	.
=153	=153	=153	=153
4ff	16d	4a	4f
.	32A	.	.
.	32A	.	.
.	16A	.	.
.	16A	.	.
8r	16d	8r	8r
.	16A	.	.
8dd	16d	8a	8f
.	16A	.	.
=154	=154	=154	=154
4cc#	16a	4a	4e
.	32A	.	.
.	32A	.	.
.	16A	.	.
.	16A	.	.
8r	16a	8r	8r
.	16A	.	.
8ccc#	16a	8g	8e
.	16A	.	.
=155	=155	=155	=155
4ddd	16a	4f	4d
.	32A	.	.
.	32A	.	.
.	16A	.	.
.	16A	.	.
8r	16a	8r	8r
.	16A	.	.
8gg#	16a	8f	8d
.	16A	.	.
=156	=156	=156	=156
16aa	4a	4e	8c#
32a	.	.	.
32a	.	.	.
16a	.	.	8AA
16a	.	.	.
16aa	8r	8r	[4A
16a	.	.	.
16aa	8a	8c#	.
16a	.	.	.
=157	=157	=157	=157
16bb	4.g#	4.d	8A]
32a	.	.	.
32a	.	.	.
16a	.	.	8AA
16a	.	.	.
16bb	.	.	[4A
16a	.	.	.
16bb	8g#	8d	.
16a	.	.	.
=158	=158	=158	=158
16ccc#	8.g	8.e	16A]
32a	.	.	16AA
32a	.	.	.
16a	.	.	8.A
16a	16g	16e	.
16ddd	8.f#	8.d	.
32a	.	.	16AA
32a	.	.	.
16a	.	.	[8A
16a	16dd	16f#	.
=159	=159	=159	=159
16eee	8.cc#	8.g	16A]
32a	.	.	16AA
32a	.	.	.
16a	.	.	8.A
16a	16cc#	16g	.
16fff#	8.dd	8.f#	.
32a	.	.	16AA
32a	.	.	.
16a	.	.	8A
16a	16f#	16d	.
=160	=160	=160	=160
[4ggg	[4e	[4c#	[4AA
16ggg]	8e]	8c#]	8AA]
16eee	.	.	.
16ccc#	8r	8r	8r
16aa	.	.	.
=161	=161	=161	=161
16gg	2r	2r	2r
16ee	.	.	.
16cc#	.	.	.
16a	.	.	.
16g	.	.	.
16e	.	.	.
16c#	.	.	.
16A	.	.	.
=162	=162	=162	=162
2B-	8r	8r	8r
.	4G	8E	8GG
.	.	8C#	8EE
.	8G	8D	8DD
=163	=163	=163	=163
8A	8G	8E	8CC#
8r	4.r	4.r	4.r
16.a	.	.	.
32f#	.	.	.
16.g	.	.	.
32e	.	.	.
=164	=164	=164	=164
8d	4A	4F#	4D
4f#	.	.	.
.	4f#	4B	4D#
8b	.	.	.
=165	=165	=165	=165
8a	8f#	4B	4E
8g	8e	.	.
16a	4r	4r	4r
16g	.	.	.
16f#	.	.	.
16e	.	.	.
=166	=166	=166	=166
8d	8r	8r	8r
8c#	4A	8E	8GG
8d	.	8F#	8FF#
8a	8e	8G	8CC#
=167	=167	=167	=167
8g	8e	8c#	4DD
8f#	8d	8d	.
8b	8f#	8d	4r
8a	8e	8c#	.
=168	=168	=168	=168
8g#	8d	8B	4r
8a	8e	8c#	.
8gg	8g	8d	8B
8ff#	8f#	8c#	8A
=169	=169	=169	=169
8ee#	8e#	8B	8G#
8ff#	8f#	8c#	8A
[4ee	8b	8g	4r
.	8a#	8f#	.
=170	=170	=170	=170
16ee]	8b	8g	4.r
16bb	.	.	.
16gg	4r	4r	.
32ff#	.	.	.
32ee	.	.	.
8dd	.	.	.
8ee	8cc#	8g	8A
=171	=171	=171	=171
8gg	8ee	8c#	8A#
8ff#	4dd	8d	8B
8bb	.	8.e	8G#
8ccc#	[8aa	.	8G
.	.	32d	.
.	.	32e	.
=172	=172	=172	=172
24ddd	24aa]	24f#	8F#
24aa	24ff#	24d	.
24ff#	24dd	24a	.
24ee	24b	24g	8G
24gg	24g	24e	.
24bb	24e	24b	.
8.dd	8.f#	8.a	8A
.	.	.	8AA
32ff#	32a	16c#	.
32ee	32g	.	.
=173	=173	=173	=173
8dd	8f#	8d	8D
8r	4.r	4.r	4.r
8dd	.	.	.
8cc#	.	.	.
=174	=174	=174	=174
8b	8d	4.E	2GG#
8..ee	8c#	.	.
.	8B	.	.
32ff#	.	.	.
16.dd	8r	8F#	.
32ee	.	.	.
=175	=175	=175	=175
8cc#	16.e	8G	4.AA
.	32f#	.	.
8..aa	16.d	8F#	.
.	32e	.	.
.	8c#	8E	.
32bb	.	.	.
16.gg	8ee	[8a	8C#
32aa	.	.	.
=176	=176	=176	=176
16.ff#	8dd	8a]	8D
32gg	.	.	.
16.ee	8b	8g	8G
32ff#	.	.	.
16.dd	8a	8f#	8A
32ee	.	.	.
16.cc#	8g	16.e	8AA
32ee	.	32c#	.
=177	=177	=177	=177
8dd	8f#	8d	16D
.	.	.	32AA
.	.	.	32AA
4dd	4d	8F#	16D
.	.	.	16AA
.	.	8G	16E
.	.	.	16AA
8cc#	8c#	8A	16F#
.	.	.	16AA
=178	=178	=178	=178
8b	8B	8B	16G
.	.	.	32AA
.	.	.	32AA
8..ee	8..e	8G	16E
.	.	.	16AA
.	.	8A	16F#
.	.	.	16AA
32ff#	32f#	.	.
16.dd	16.d	8B	16G
.	.	.	16AA
32ee	32e	.	.
=179	=179	=179	=179
8cc#	8c#	8A	16A
.	.	.	32AA
.	.	.	32AA
8..aa	8e	8c#	16GG
.	.	.	16G
.	8a	8d	16F#
.	.	.	16FF#
32bb	.	.	.
16.gg	8cc#	[8a	16EE
.	.	.	16E
32aa	.	.	.
=180	=180	=180	=180
16.ff#	8dd	8a]	16DD
.	.	.	16D
32gg	.	.	.
16.ee	8b	8g	16GG
.	.	.	16G
32ff#	.	.	.
16.dd	16.f#	8a	16A
.	.	.	16G
32ee	32g	.	.
16.cc#	16.e	8a	16A
.	.	.	16AA
32ee	32g	.	.
=181	=181	=181	=181
4dd	4f#	4a	16D
.	.	.	32DD
.	.	.	32DD
.	.	.	16DD
.	.	.	16DD
4r	4r	4r	16FF#
.	.	.	16DD
.	.	.	16AA
.	.	.	16DD
=182	=182	=182	=182
4.aa	4.a	4.f#	16D
.	.	.	32DD
.	.	.	32DD
.	.	.	16DD
.	.	.	16DD
.	.	.	16FF#
.	.	.	16DD
8ccc#	8g	8e	16AA
.	.	.	16DD
=183	=183	=183	=183
4ddd	4f#	4d	16D
.	.	.	32DD
.	.	.	32DD
.	.	.	16DD
.	.	.	16DD
4r	4r	4r	16FF#
.	.	.	16DD
.	.	.	16AA
.	.	.	16DD
=184	=184	=184	=184
4.aa	4.f#	4.A	16D
.	.	.	32DD
.	.	.	32DD
.	.	.	16DD
.	.	.	16DD
.	.	.	16FF#
.	.	.	16DD
8cc#	8e	8G	16AA
.	.	.	16DD
=185	=185	=185	=185
8dd	8d	8F#	8D
8r	8r	8r	8r
8d	8A	8F#	8DD
8r	8r	8r	8r
=186	=186	=186	=186
4d	4A	4F#	4DD
4r	4r	4r	4r
==	==	==	==
*-	*-	*-	*-
!!!RWG1: This file contains only pitch and duration data.
!!!RWG2: Transposing instruments are not transposed.
!!!RWG3: Spines may have incompatible meters.
!!!RWG4: Durations of rests and tied notes may be interpreted.
!!!RWG: Key is interpreted using the Humdrum key tool.
!!!AFT: stage1
!!!END: 1997/04/15
!!format changes:
!!content changes:
!!public access: complete
!!!KEY: 3455486825
!!!EMD: Converted from MuseData to Humdrum Dec 16, 2000, by Andreas Kornstaedt using muse2kern.
